X: 42772
T: White Pony, The
R: jig
M: 6/8
K: Gmajor
DG^F GAF|DGB dgd|BG^F GAF|DAB AA2|
DG^F GAF|DGB dgd|BG^F GAF|DGA GG2|
DG^F GAF|DGB dgd|BG^F GAF|DAB AA2|
DG^F GAF|DGB dgd|BG^F GAF|DGA GG2|
dga gge|ded eg2|dBA GAG|EAB AAd|
gag ged|ede g2d|BAG AGD|GAG G2d|
gag ged|ede g2d|BAG AGE|ABA A2D|
G^FG AFD|GBd gdB|G^FG AFD|GAG G3-||

